build/logo/KubernetesSolid.svg

<svg xmlns="http://www.w3.org/2000/svg" fill="none" viewBox="0 0 24 24" focusable="false"><path d="M0 0H24V24H0z"/><path fill="#74767B" fill-rule="evenodd" d="M11.3492 2.88927C11.7605 2.69121 12.2396 2.69121 12.6508 2.88927L18.71 5.80722C19.1213 6.00528 19.42 6.37985 19.5216 6.82489L21.0181 13.3815C21.1197 13.8265 21.0131 14.2936 20.7284 14.6505L16.5354 19.9084C16.2507 20.2653 15.8191 20.4732 15.3626 20.4732L8.63743 20.4732C8.18095 20.4732 7.7493 20.2653 7.46469 19.9084L3.2716 14.6505C2.98699 14.2936 2.88038 13.8265 2.98196 13.3815L4.47845 6.82489C4.58003 6.37985 4.87874 6.00528 5.29002 5.80722L11.3492 2.88927ZM12.6498 6.65012C12.6498 6.29114 12.3587 6.00012 11.9998 6.00012C11.6408 6.00012 11.3498 6.29114 11.3498 6.65012L11.3498 7.77581C10.4881 7.90762 9.71139 8.29733 9.10081 8.86368L8.21664 8.15786C7.93608 7.93389 7.52709 7.97977 7.30313 8.26032C7.07916 8.54088 7.12504 8.94987 7.40559 9.17383L8.2928 9.88208C7.93834 10.5039 7.73584 11.2236 7.73584 11.9906C7.73584 12.0976 7.73978 12.2037 7.74753 12.3087L6.62918 12.5628C6.27912 12.6423 6.05981 12.9906 6.13934 13.3406C6.21887 13.6907 6.56713 13.91 6.9172 13.8305L8.04006 13.5754C8.35519 14.3621 8.89796 15.033 9.58689 15.5067L9.08187 16.5514C8.92563 16.8746 9.06098 17.2633 9.38418 17.4195C9.70738 17.5757 10.096 17.4404 10.2523 17.1172L10.758 16.071C11.151 16.1904 11.5679 16.2546 11.9999 16.2546C12.4317 16.2546 12.8485 16.1905 13.2413 16.0711L13.747 17.1172C13.9033 17.4404 14.2919 17.5757 14.6151 17.4195C14.9383 17.2633 15.0737 16.8746 14.9174 16.5514L14.4125 15.5069C15.1016 15.0332 15.6445 14.3622 15.9597 13.5755L17.0821 13.8305C17.4322 13.91 17.7804 13.6907 17.86 13.3406C17.9395 12.9906 17.7202 12.6423 17.3701 12.5628L16.2522 12.3088C16.26 12.2037 16.2639 12.0976 16.2639 11.9906C16.2639 11.2235 16.0614 10.5037 15.7068 9.88183L16.5937 9.17382C16.8743 8.94985 16.9202 8.54086 16.6962 8.26031C16.4722 7.97975 16.0632 7.93388 15.7827 8.15784L14.8987 8.86349C14.2881 8.29719 13.5114 7.90753 12.6498 7.77577L12.6498 6.65012ZM14.9639 11.9906C14.9639 13.6276 13.6369 14.9546 11.9999 14.9546C10.3629 14.9546 9.03584 13.6276 9.03584 11.9906C9.03584 10.3536 10.3629 9.02656 11.9999 9.02656C13.6369 9.02656 14.9639 10.3536 14.9639 11.9906ZM12.9995 11.9907C12.9995 12.543 12.5518 12.9907 11.9995 12.9907C11.4472 12.9907 10.9995 12.543 10.9995 11.9907C10.9995 11.4384 11.4472 10.9907 11.9995 10.9907C12.5518 10.9907 12.9995 11.4384 12.9995 11.9907Z"/></svg>

<svg xmlns="http://www.w3.org/2000/svg" fill="none" viewBox="0 0 24 24" focusable="false"><path fill="#74767B" fill-rule="evenodd" d="M11.34 2.88c.42-.19.89-.19 1.31 0L18.7 5.8c.42.2.71.57.82 1.02l1.49 6.56c.1.44 0 .91-.29 1.27l-4.19 5.25c-.28.36-.72.57-1.17.57H8.63c-.45 0-.89-.21-1.17-.57l-4.19-5.25c-.29-.36-.39-.83-.29-1.27l1.49-6.56c.11-.45.4-.82.82-1.02zm1.3 3.77c0-.36-.29-.65-.65-.65-.35 0-.65.29-.65.65v1.12c-.86.13-1.63.52-2.24 1.09l-.89-.71a.64.64 0 0 0-.91.11c-.23.28-.18.68.1.91l.89.71c-.36.62-.56 1.34-.56 2.11 0 .1 0 .21.01.31l-1.12.26a.652.652 0 0 0 .29 1.27l1.13-.26c.31.79.85 1.46 1.54 1.93l-.5 1.05c-.16.32-.02.71.3.86.32.16.71.03.87-.3l.5-1.04c.4.12.81.18 1.25.18.43 0 .84-.06 1.24-.18l.5 1.04c.16.33.55.46.87.3.32-.15.46-.54.3-.86l-.5-1.05c.69-.47 1.23-1.14 1.54-1.93l1.13.26c.35.08.7-.14.77-.49.08-.35-.13-.7-.48-.78l-1.12-.26c0-.1.01-.21.01-.31 0-.77-.2-1.49-.56-2.11l.89-.71a.65.65 0 0 0 .1-.91.64.64 0 0 0-.91-.11l-.89.71c-.61-.57-1.38-.96-2.25-1.09zm-.64 8.3a2.966 2.966 0 0 0 0-5.93 2.97 2.97 0 0 0-2.97 2.97c0 1.63 1.33 2.96 2.97 2.96m-.01-1.96c.56 0 1-.45 1-1 0-.56-.44-1-1-1-.55 0-1 .44-1 1 0 .55.45 1 1 1"/></svg>
